static/img/kroki/047f501237b41d63eebf082cd57a80c5.svg

<?xml version="1.0" encoding="us-ascii" standalone="no"?><svg xmlns="http://www.w3.org/2000/svg" xmlns:xlink="http://www.w3.org/1999/xlink" contentStyleType="text/css" height="374px" preserveAspectRatio="none" style="width:252px;height:374px;" version="1.1" viewBox="0 0 252 374" width="252px" zoomAndPan="magnify"><defs/><g><!--class gcp_resource--><g id="elem_gcp_resource"><rect codeLine="23" fill="#3D176E" height="39.7891" id="gcp_resource" rx="2.5" ry="2.5" style="stroke:#000D19;stroke-width:0.5;" width="150" x="51" y="167.79"/><ellipse cx="66" cy="187.6845" fill="#ADD1B2" rx="11" ry="11" style="stroke:#181818;stroke-width:1.0;"/><path d="M68.9688,193.3252 Q68.3906,193.622 67.75,193.7627 Q67.1094,193.9189 66.4063,193.9189 Q63.9063,193.9189 62.5781,192.2783 Q61.2656,190.622 61.2656,187.497 Q61.2656,184.372 62.5781,182.7158 Q63.9063,181.0595 66.4063,181.0595 Q67.1094,181.0595 67.75,181.2158 Q68.4063,181.372 68.9688,181.6689 L68.9688,184.3877 Q68.3438,183.8095 67.75,183.5439 Q67.1563,183.2627 66.5313,183.2627 Q65.1875,183.2627 64.5,184.3408 Q63.8125,185.4033 63.8125,187.497 Q63.8125,189.5908 64.5,190.6689 Q65.1875,191.7314 66.5313,191.7314 Q67.1563,191.7314 67.75,191.4658 Q68.3438,191.1845 68.9688,190.6064 L68.9688,193.3252 Z " fill="#000000"/><text fill="#D9B8FF" font-family="Helvetica" font-size="17" lengthAdjust="spacing" textLength="108" x="85" y="193.5698">gcp_resource</text></g><!--class gcp_target_https_proxy--><g id="elem_gcp_target_https_proxy"><rect codeLine="26" fill="#3D176E" height="39.7891" id="gcp_target_https_proxy" rx="2.5" ry="2.5" style="stroke:#000D19;stroke-width:0.5;" width="238" x="7" y="328.58"/><ellipse cx="22" cy="348.4745" fill="#ADD1B2" rx="11" ry="11" style="stroke:#181818;stroke-width:1.0;"/><path d="M24.9688,354.1152 Q24.3906,354.412 23.75,354.5527 Q23.1094,354.7089 22.4063,354.7089 Q19.9063,354.7089 18.5781,353.0683 Q17.2656,351.412 17.2656,348.287 Q17.2656,345.162 18.5781,343.5058 Q19.9063,341.8495 22.4063,341.8495 Q23.1094,341.8495 23.75,342.0058 Q24.4063,342.162 24.9688,342.4589 L24.9688,345.1777 Q24.3438,344.5995 23.75,344.3339 Q23.1563,344.0527 22.5313,344.0527 Q21.1875,344.0527 20.5,345.1308 Q19.8125,346.1933 19.8125,348.287 Q19.8125,350.3808 20.5,351.4589 Q21.1875,352.5214 22.5313,352.5214 Q23.1563,352.5214 23.75,352.2558 Q24.3438,351.9745 24.9688,351.3964 L24.9688,354.1152 Z " fill="#000000"/><text fill="#D9B8FF" font-family="Helvetica" font-size="17" lengthAdjust="spacing" textLength="196" x="41" y="354.3598">gcp_target_https_proxy</text></g><!--class resource--><g id="elem_resource"><rect codeLine="29" fill="#3D176E" height="39.7891" id="resource" rx="2.5" ry="2.5" style="stroke:#000D19;stroke-width:0.5;" width="113" x="69.5" y="7"/><ellipse cx="84.5" cy="26.8945" fill="#ADD1B2" rx="11" ry="11" style="stroke:#181818;stroke-width:1.0;"/><path d="M87.4688,32.5352 Q86.8906,32.832 86.25,32.9727 Q85.6094,33.1289 84.9063,33.1289 Q82.4063,33.1289 81.0781,31.4883 Q79.7656,29.832 79.7656,26.707 Q79.7656,23.582 81.0781,21.9258 Q82.4063,20.2695 84.9063,20.2695 Q85.6094,20.2695 86.25,20.4258 Q86.9063,20.582 87.4688,20.8789 L87.4688,23.5977 Q86.8438,23.0195 86.25,22.7539 Q85.6563,22.4727 85.0313,22.4727 Q83.6875,22.4727 83,23.5508 Q82.3125,24.6133 82.3125,26.707 Q82.3125,28.8008 83,29.8789 Q83.6875,30.9414 85.0313,30.9414 Q85.6563,30.9414 86.25,30.6758 Q86.8438,30.3945 87.4688,29.8164 L87.4688,32.5352 Z " fill="#000000"/><text fill="#D9B8FF" font-family="Helvetica" font-size="17" lengthAdjust="spacing" textLength="71" x="103.5" y="32.7798">resource</text></g><!--reverse link resource to gcp_resource--><g id="link_resource_gcp_resource"><path codeLine="32" d="M126,65.05 C126,95.57 126,136.9 126,167.46 " fill="none" id="resource-backto-gcp_resource" style="stroke:#FFAF37;stroke-width:2.0;"/><polygon fill="none" points="126,47.05,120,65.05,132,65.05,126,47.05" style="stroke:#FFAF37;stroke-width:2.0;"/></g><!--reverse link gcp_resource to gcp_target_https_proxy--><g id="link_gcp_resource_gcp_target_https_proxy"><path codeLine="33" d="M126,225.84 C126,256.36 126,297.69 126,328.25 " fill="none" id="gcp_resource-backto-gcp_target_https_proxy" style="stroke:#FFAF37;stroke-width:2.0;"/><polygon fill="none" points="126,207.84,120,225.84,132,225.84,126,207.84" style="stroke:#FFAF37;stroke-width:2.0;"/></g><!--SRC=[XP1FJuD04CNlV8fDUYO16wKaNYg9qKjZh7UoiBEm0NR9x635FzzTiLeNiErnv_tslJTJAW4CcfPwra2J0LhFLagt77d3reXcbvZQ85j8oUKocegtHjDPOCCRO7TGFmEfd4-9frBbbGPhsOKZtV2yAj1qMkpj2RcsNn9eSgYavjQkYL1b7O5JHiJPIiefEJLTB4KONS4CCoW0Vv0W24GOJv6pKIVtFX1RzGeiT8-sCGIpchE8R-faou5mIiuM_TMFTdpWGYXTi4jdzhZlX1fmDD-MN9ZTG4jUMpV64Y0Owbj8Pbj1l18o-XU-FmPx-N0wLkHjYc1DXpcmDy_xSER4iG1AIwBMfYsQbzubnhyEh-jtt_T7jjueuq-VstkV]--></g></svg>

<svg xmlns="http://www.w3.org/2000/svg" width="252" height="374" viewBox="0 0 252 374"><rect width="150" height="39.789" x="51" y="167.79" fill="#3D176E" rx="2.5" ry="2.5" style="stroke:#000d19;stroke-width:.5"/><circle cx="66" cy="187.685" r="11" fill="#ADD1B2" style="stroke:#181818;stroke-width:1"/><path d="M68.969 193.325q-.578.297-1.219.438-.64.156-1.344.156-2.5 0-3.828-1.64-1.312-1.657-1.312-4.782t1.312-4.781q1.328-1.656 3.828-1.656.703 0 1.344.156.656.156 1.219.453v2.719q-.625-.578-1.219-.844-.594-.281-1.219-.281-1.344 0-2.031 1.078-.687 1.062-.687 3.156t.687 3.172q.688 1.062 2.031 1.062.625 0 1.219-.265.594-.281 1.219-.86z"/><text x="85" y="193.57" fill="#D9B8FF" font-family="Helvetica" font-size="17" textLength="108">gcp_resource</text><rect width="238" height="39.789" x="7" y="328.58" fill="#3D176E" rx="2.5" ry="2.5" style="stroke:#000d19;stroke-width:.5"/><circle cx="22" cy="348.474" r="11" fill="#ADD1B2" style="stroke:#181818;stroke-width:1"/><path d="M24.969 354.115q-.578.297-1.219.438-.64.156-1.344.156-2.5 0-3.828-1.64-1.312-1.657-1.312-4.782t1.312-4.781q1.328-1.656 3.828-1.656.703 0 1.344.156.656.156 1.219.453v2.719q-.625-.579-1.219-.844-.594-.281-1.219-.281-1.343 0-2.031 1.078-.687 1.062-.687 3.156t.687 3.172q.688 1.062 2.031 1.062.625 0 1.219-.265.594-.281 1.219-.86z"/><text x="41" y="354.36" fill="#D9B8FF" font-family="Helvetica" font-size="17" textLength="196">gcp_target_https_proxy</text><rect width="113" height="39.789" x="69.5" y="7" fill="#3D176E" rx="2.5" ry="2.5" style="stroke:#000d19;stroke-width:.5"/><circle cx="84.5" cy="26.895" r="11" fill="#ADD1B2" style="stroke:#181818;stroke-width:1"/><path d="M87.469 32.535q-.578.297-1.219.438-.64.156-1.344.156-2.5 0-3.828-1.64-1.312-1.657-1.312-4.782t1.312-4.781q1.328-1.656 3.828-1.656.703 0 1.344.156.656.156 1.219.453v2.719q-.625-.578-1.219-.844-.594-.281-1.219-.281-1.344 0-2.031 1.078-.687 1.062-.687 3.156T83 29.879q.688 1.062 2.031 1.062.625 0 1.219-.265.594-.281 1.219-.86z"/><text x="103.5" y="32.78" fill="#D9B8FF" font-family="Helvetica" font-size="17" textLength="71">resource</text><path fill="none" d="M126 65.05v102.41m0-120.41-6 18h12zm0 178.79v102.41m0-120.41-6 18h12z" style="stroke:#ffaf37;stroke-width:2"/></svg>
